dist/svg/credit-token.svg

<!-- Generated by Trend Micro Style Portal -->
<svg version="1.1" xmlns="http://www.w3.org/2000/svg" width="16" height="16" viewBox="0 0 16 16">
  <title>credit-token</title>
  <path fill="rgb(34,34,34)" d="M8 0c-4.418 0-8 3.582-8 8s3.582 8 8 8c4.418 0 8-3.582 8-8v0c-0-4.418-3.582-8-8-8h-0zM8 15c-3.866 0-7-3.134-7-7s3.134-7 7-7c3.866 0 7 3.134 7 7v0c-0 3.866-3.134 7-7 7h-0zM8 1.5c-3.59 0-6.5 2.91-6.5 6.5s2.91 6.5 6.5 6.5c3.59 0 6.5-2.91 6.5-6.5v0c-0.004-3.588-2.912-6.496-6.5-6.5h-0zM12 6v1h-1v-1h-2v5h1v1h-4v-1h1v-5h-2v1h-1v-2h8z"></path>
</svg>

<svg width="16" height="16" viewBox="0 0 16 16" fill="rgb(34, 34, 34)" xmlns="http://www.w3.org/2000/svg"><title>credit-token</title><path d="M8 0C3.582 0 0 3.582 0 8C0 12.418 3.582 16 8 16C12.418 16 16 12.418 16 8C16 3.582 12.418 0 8 0ZM8 15C4.134 15 1 11.866 1 8C1 4.134 4.134 1 8 1C11.866 1 15 4.134 15 8C15 11.866 11.866 15 8 15ZM8 1.5C4.41 1.5 1.5 4.41 1.5 8C1.5 11.59 4.41 14.5 8 14.5C11.59 14.5 14.5 11.59 14.5 8C14.496 4.412 11.588 1.504 8 1.5ZM12 6V7H11V6H9V11H10V12H6V11H7V6H5V7H4V5H12V6Z" fill="rgb(34, 34, 34)" fill-opacity="1.00"/></svg>
